material/.icons/material/glass-cocktail.svg

<?xml version="1.0" encoding="UTF-8"?><!DOCTYPE svg PUBLIC "-//W3C//DTD SVG 1.1//EN" "http://www.w3.org/Graphics/SVG/1.1/DTD/svg11.dtd"><svg xmlns="http://www.w3.org/2000/svg" xmlns:xlink="http://www.w3.org/1999/xlink" version="1.1" id="mdi-glass-cocktail" width="24" height="24" viewBox="0 0 24 24"><path d="M7.5,7L5.5,5H18.5L16.5,7M11,13V19H6V21H18V19H13V13L21,5V3H3V5L11,13Z" /></svg>

<svg xmlns="http://www.w3.org/2000/svg" viewBox="0 0 24 24"><path d="M7.5 7l-2-2h13l-2 2M11 13v6H6v2h12v-2h-5v-6l8-8V3H3v2l8 8z"/></svg>
